src/images/amenities/wifi.svg

<svg width="23" height="23" viewBox="0 0 23 23" fill="none" xmlns="http://www.w3.org/2000/svg">
<path d="M4.98498 10.0666C6.59326 8.19533 8.94322 7.12215 11.4321 7.12215C13.9215 7.12215 16.2714 8.19579 17.8792 10.0671C17.9684 10.1715 18.0942 10.2248 18.22 10.2248C18.3254 10.2248 18.4318 10.1876 18.5173 10.1112C18.7055 9.94425 18.725 9.65399 18.5607 9.46263C16.781 7.39033 14.183 6.20215 11.4321 6.20215C8.68166 6.20215 6.08371 7.38987 4.30348 9.46125C4.13921 9.65261 4.15822 9.94333 4.34647 10.1103C4.53472 10.2777 4.82071 10.258 4.98498 10.0666Z" fill="#39412F"/>
<path d="M16.0044 11.8905C16.0935 12.0023 16.2239 12.0602 16.3556 12.0602C16.456 12.0602 16.5565 12.0267 16.6406 11.9567C16.8348 11.7962 16.8637 11.5064 16.7063 11.31C15.4211 9.70412 13.4983 8.7832 11.4321 8.7832C9.36631 8.7832 7.44398 9.70412 6.1579 11.3091C5.99997 11.5064 6.02939 11.7962 6.22307 11.9563C6.41765 12.1177 6.7032 12.0865 6.85977 11.89C7.97298 10.5004 9.64008 9.70274 11.4321 9.70274C13.225 9.7032 14.8916 10.5004 16.0044 11.8905Z" fill="#39412F"/>
<path d="M14.0843 13.6726C14.2273 13.881 14.5102 13.9316 14.7147 13.7867C14.9197 13.6414 14.9695 13.3548 14.8269 13.1459C14.0608 12.03 12.7919 11.3639 11.4321 11.3639C10.0519 11.3639 8.77259 12.0456 8.00918 13.1873C7.86845 13.3976 7.92275 13.6837 8.1291 13.8267C8.20739 13.8806 8.29563 13.9063 8.38342 13.9063C8.52823 13.9063 8.67078 13.8359 8.75811 13.7048C9.35273 12.8147 10.3524 12.2839 11.4325 12.2839C12.496 12.2839 13.4879 12.8032 14.0843 13.6726Z" fill="#39412F"/>
<path d="M11.4322 16.3222C11.9321 16.3222 12.3373 15.9167 12.3373 15.4165C12.3373 14.9163 11.9321 14.5107 11.4322 14.5107C10.9324 14.5107 10.5272 14.9163 10.5272 15.4165C10.5272 15.9167 10.9324 16.3222 11.4322 16.3222Z" fill="#39412F"/>
</svg>

<svg xmlns="http://www.w3.org/2000/svg" viewBox="0 0 23 23"><path d="M4.985 10.067a8.485 8.485 0 0 1 6.447-2.945c2.49 0 4.84 1.074 6.447 2.945a.447.447 0 0 0 .638.044.465.465 0 0 0 .044-.648 9.38 9.38 0 0 0-7.129-3.26A9.383 9.383 0 0 0 4.303 9.46a.465.465 0 0 0 .043.65.447.447 0 0 0 .639-.044Z" fill="#39412F"/><path d="M16.004 11.89a.448.448 0 0 0 .637.067.465.465 0 0 0 .065-.647 6.72 6.72 0 0 0-5.274-2.527c-2.066 0-3.988.921-5.274 2.526a.465.465 0 0 0 .065.647c.195.162.48.13.637-.066a5.827 5.827 0 0 1 4.572-2.187c1.793 0 3.46.797 4.572 2.188Z" fill="#39412F"/><path d="M14.084 13.673a.449.449 0 0 0 .63.114.465.465 0 0 0 .113-.641 4.114 4.114 0 0 0-3.395-1.782c-1.38 0-2.66.682-3.423 1.823a.465.465 0 0 0 .12.64.446.446 0 0 0 .63-.122 3.205 3.205 0 0 1 2.673-1.421c1.064 0 2.056.52 2.652 1.389ZM11.432 16.322a.905.905 0 1 0 0-1.81.905.905 0 0 0 0 1.81Z" fill="#39412F"/></svg>
